src/assets/protractor-logo.svg

<?xml version="1.0" encoding="UTF-8" standalone="no"?>
<svg width="256px" height="256px" viewBox="0 0 256 256" version="1.1" xmlns="http://www.w3.org/2000/svg" xmlns:xlink="http://www.w3.org/1999/xlink" preserveAspectRatio="xMidYMid">
	<g>
		<path d="M256,128 C256,198.692 198.692,256 128,256 C57.308,256 0,198.692 0,128 C0,57.308 57.308,0 128,0 C198.692,0 256,57.308 256,128" fill="#E23237"></path>
		<path d="M255.9999,127.9999 C255.9999,127.5839 255.9729,127.1749 255.9689,126.7599 C230.3909,102.1019 204.5249,77.1269 203.7989,76.2679 C185.7669,54.9299 158.8079,41.3799 128.6839,41.3799 C74.3959,41.3799 30.3859,85.3899 30.3859,139.6779 C30.3859,147.1889 31.2559,154.4919 32.8519,161.5189 C68.4809,199.0539 101.6169,233.1899 126.4169,255.9599 C126.9459,255.9669 127.4689,255.9999 127.9999,255.9999 C198.6919,255.9999 255.9999,198.6929 255.9999,127.9999" fill="#B52E31"></path>
		<path d="M191.8717,138.2551 L66.0067,138.2551 C66.0057,138.0841 65.9947,137.9161 65.9947,137.7451 C65.9947,102.9811 94.1757,74.8001 128.9397,74.8001 C163.7027,74.8001 191.8847,102.9811 191.8847,137.7451 C191.8847,137.9161 191.8727,138.0841 191.8717,138.2551 L191.8717,138.2551 Z M206.7657,135.4061 L226.8747,135.4061 C225.7927,110.1141 215.1627,87.3001 198.4857,70.4781 L184.5997,84.3651 L181.2417,81.0081 L195.0627,67.1871 C178.0317,51.5841 155.4827,41.9271 130.6827,41.4301 L130.6827,59.3231 L125.9347,59.3231 L125.9347,41.4491 C101.1197,42.1331 78.6087,51.9981 61.6747,67.7891 L74.3167,80.4311 L70.9597,83.7881 L58.2817,71.1101 C41.9557,87.8701 31.5637,110.4251 30.4937,135.4061 L48.9027,135.4061 L48.9027,140.1541 L30.3997,140.1541 C30.4357,147.4961 31.2897,154.6411 32.8517,161.5191 L224.5177,161.5191 C226.0787,154.6411 226.9337,147.4961 226.9697,140.1541 L206.7657,140.1541 L206.7657,135.4061 Z" fill="#FFFFFF"></path>
	</g>
</svg>

<?xml version="1.0" encoding="UTF-8" standalone="no"?>
<svg
   xmlns:dc="http://purl.org/dc/elements/1.1/"
   xmlns:cc="http://creativecommons.org/ns#"
   xmlns:rdf="http://www.w3.org/1999/02/22-rdf-syntax-ns#"
   xmlns:svg="http://www.w3.org/2000/svg"
   xmlns="http://www.w3.org/2000/svg"
   xmlns:sodipodi="http://sodipodi.sourceforge.net/DTD/sodipodi-0.dtd"
   xmlns:inkscape="http://www.inkscape.org/namespaces/inkscape"
   width="100"
   height="100"
   viewBox="0 0 100 100"
   version="1.1"
   preserveAspectRatio="xMidYMid"
   id="svg10"
   sodipodi:docname="protractor-logo.svg"
   inkscape:version="0.92.3 (2405546, 2018-03-11)">
  <metadata
     id="metadata16">
    <rdf:RDF>
      <cc:Work
         rdf:about="">
        <dc:format>image/svg+xml</dc:format>
        <dc:type
           rdf:resource="http://purl.org/dc/dcmitype/StillImage" />
        <dc:title></dc:title>
      </cc:Work>
    </rdf:RDF>
  </metadata>
  <defs
     id="defs14" />
  <sodipodi:namedview
     pagecolor="#ffffff"
     bordercolor="#666666"
     borderopacity="1"
     objecttolerance="10"
     gridtolerance="10"
     guidetolerance="10"
     inkscape:pageopacity="0"
     inkscape:pageshadow="2"
     inkscape:window-width="640"
     inkscape:window-height="480"
     id="namedview12"
     showgrid="false"
     inkscape:zoom="0.921875"
     inkscape:cx="128"
     inkscape:cy="128"
     inkscape:window-x="0"
     inkscape:window-y="27"
     inkscape:window-maximized="0"
     inkscape:current-layer="svg10" />
  <g
     id="g8"
     transform="matrix(0.38559322,0,0,0.38983051,0,0.20338983)">
    <path
       d="M 256,128 C 256,198.692 198.692,256 128,256 57.308,256 0,198.692 0,128 0,57.308 57.308,0 128,0 198.692,0 256,57.308 256,128"
       id="path2"
       inkscape:connector-curvature="0"
       style="fill:#e23237" />
    <path
       d="m 255.9999,127.9999 c 0,-0.416 -0.027,-0.825 -0.031,-1.24 -25.578,-24.658 -51.444,-49.633 -52.17,-50.492 -18.032,-21.338 -44.991,-34.888 -75.115,-34.888 -54.288,0 -98.298,44.01 -98.298,98.298 0,7.511 0.87,14.814 2.466,21.841 35.629,37.535 68.765,71.671 93.565,94.441 0.529,0.007 1.052,0.04 1.583,0.04 70.692,0 128,-57.307 128,-128"
       id="path4"
       inkscape:connector-curvature="0"
       style="fill:#b52e31" />
    <path
       d="M 191.8717,138.2551 H 66.0067 c -10e-4,-0.171 -0.012,-0.339 -0.012,-0.51 0,-34.764 28.181,-62.945 62.945,-62.945 34.763,0 62.945,28.181 62.945,62.945 0,0.171 -0.012,0.339 -0.013,0.51 z m 14.894,-2.849 h 20.109 c -1.082,-25.292 -11.712,-48.106 -28.389,-64.928 l -13.886,13.887 -3.358,-3.357 13.821,-13.821 c -17.031,-15.603 -39.58,-25.26 -64.38,-25.757 v 17.893 h -4.748 v -17.874 c -24.815,0.684 -47.326,10.549 -64.26,26.34 l 12.642,12.642 -3.357,3.357 -12.678,-12.678 c -16.326,16.76 -26.718,39.315 -27.788,64.296 h 18.409 v 4.748 h -18.503 c 0.036,7.342 0.89,14.487 2.452,21.365 h 191.666 c 1.561,-6.878 2.416,-14.023 2.452,-21.365 h -20.204 z"
       id="path6"
       inkscape:connector-curvature="0"
       style="fill:#ffffff" />
  </g>
</svg>
